X: 43625
T: Zakynthos, The
R: jig
M: 6/8
K: Aminor
|:a2a gag|eaa a2g|ecc BcB|A2F F2F|
EAB cBA|FAB cBA|B3 edc|Bcd cBA:|
|:EAB cBA|FAB cBA|B3 edc|Bcd cBA|
EAB cBA|FAB cBA|B3 edc|1 ~B2 A2 F2:|2 Bcd cBA||
|:d2 d2 c2|dc2 B2A|d2 d2 cd|~B3 B2A|
d2 d2 c2|dc2 B2A|d2 d2 cd|1 e3 e3:|2 e3 e2 (3^f/=g/^g/||

